X:17
T:Pipe Major Sandy Jones
C:Hamilton M Workman
B:William Livingstone Volume 1
H:
O:Kevin Fraser
Z:Kevin Fraser
Q:1/4=90
K:HP
M:6/8
L:1/8
R:March
U: R = ///
U: r = //
U: V = !accent!
V:M gstem=up stem=down name="Melody" sname="Melody" 
V:H gstem=up stem=down name="Harmony" sname="Harmony"
V:C gstem=up stem=down name="C-Harmony" sname="C-Harmony"
V:S gstem=up stem=down clef=none dyn=up name="Snare" sname="Snare"
V:B gstem=up stem=down clef=none dyn=up name="Bass" sname="Bass"
V:T gstem=up stem=down clef=none dyn=up name="Tenor" sname="Tenor"
V:BB gstem=up stem=down name="Brass Bass" sname="Bass" transpose=-1  octave=-2 clef=bass
V:BC gstem=up stem=down name="Brass Chord" sname="ABCD-D" transpose=-1
V:BD gstem=up stem=down name="Brass Chord 2" sname="ABCD-B" transpose=-1
V:P gstem=up stem=down name="Piano" sname="Piano" transpose=0 octave=-1
I:MIDI=program 110
%%MIDI gracedivider 40
% %score {M BC BD BB}
% %MIDI program 109 #bagpipes
%%MIDI vol 100
[V:M] [: a | c2{GBG}A {GAG}A>{g}ce | {Gdc}d>ef {gef}e2c | {g}A{d}c{e}B {g}c>e{A}e | {g}f>ec {gBG}B2a | 
[V:M]      | c2{GBG}A {GAG}A>{g}ce | {Gdc}d>ef {gef}e2c | {g}f>ce {gcd}c2{e}B | {g}c2{GdGe}A {GAG}A2 :]
[V:M] [: {gf}g | {ag}a3 f>e{A}e | {AGAG}A2{g}A {g}c2{GdGe}A | {g}d>f{e}f {g}e>A{d}c | a>e{g}c {gBG}B2 {gf}g
[V:M]      | {ag}a3 f>e{A}e | {AGAG}A2{g}A {g}c2{GdGe}A| {g}f>ce {gcd}c2{e}B | {g}c2{GdGe}A {GAG}A2 :]
[V:M] [: a | {cd}c3 {g}d>B{G}B | {g}c2{GdGe}A {GAG}A2c | {Gdc}d>ef {gef}e2c | {g}f>ec {gBG}B2a |
[V:M]      | {cd}c3 {g}d>B{G}B | {g}c2{GdGe}A {GAG}A2c | {g}f>ce {gcd}c2{e}B | {g}c2{GdGe}A {GAG}A2 :]
[V:M] [: e |{g}f>a{g}a A2{GdGe}A | {g}d>f{e}f {gef}e2c | a>ga c>e{A}e| {g}f>ec {gBG}B2a |
[V:M]      |{g}f>a{g}a A2{GdGe}A | {g}d>f{e}f {gef}e2c  | {g}f>ce {gcd}c2{e}B | {g}c2{GdGe}A {GAG}A2 :]

